#CH1 = (c 2 3 2 0 x x W)
#CH2 = (c x x 4 3 2 0 W)

guitar: #(c 2 3 2 0 x x W)

# Vextab syntax notes 0/1 0/2 0/3 0/4 0/5 0/6

# Alda syntax
o4 e o3 b o3 g o3 d o2 a o2 e

# alta-tab syntax

ta10 ta20 ta30 ta40 ta50 ta60

# Alda syntax
o4 e/>b/g/d/<<a/e

# alta-tab syntax

#V1: ta10 V2: ta20 V3: ta30 V4: ta40 V5: ta50 V6: ta60

# alda-tab chord syntax

#(c 0 0 0 0 0 0 W)


# alta-tab syntax

ta10 ta20 ta30 ta40 ta50 ta60

# alda-tab chord syntax
(c 0 x x x x x W)
(c x 0 x x x x W)
(c x x 0 x x x W)
(c x x x 0 x x W)
(c x x x x 0 x W)
(c x x x x x 0 W)
